X:1
T:Open My Eyes, That I May See
T:Text: Clara H. Scott (1841-1897), alt. Tune: Clara H. Scott (1841-1897)
T:88 98 88 84 OPEN MY EYES www.hymnary.org/text/open_my_eyes_that_i_may_see
T:Open My Eyes, That I May See
T:This hymn is in the public domain.  You may freely use this score for personal and congregational worship.  If you reproduce the score, please credit Hymnary.org as the source. 
T:This hymn is in the public domain.  You may freely use this score for personal and congregational worship.  If you reproduce the score, please credit Hymnary.org as the source. 
Z:This hymn is in the public domain.  You may freely use this score for personal and congregational worship.  If you reproduce the score, please credit Hymnary.org as the source.
%%score ( 1 2 ) ( 3 4 )
L:1/8
M:6/8
K:Ab
V:1 treble nm="Piano" snm="Pno."
V:2 treble 
V:3 bass nm="Piano" snm="Pno."
V:4 bass 
V:1
 [CA][CG][CF] [CE]2 [CF] | [DF]2 E E3 | [DB][DG][DF] E2 [DG] | [CF]2 [CE] [CE]3 | %4
w: 3~O- pen my mouth, and|let me bear|glad- ly the warm truth|ev- ery- where;|
w: 1~O- pen my eyes, that|I may see|glimp- ses of truth thou|hast for me;|
w: 2~O- pen my ears, that|I may hear|voi- ces of truth you|send so clear,|
 =E=DE [CF]2 [CF] | [CG][CF][=EG] [FA]3 | [=DF][DG][DA] [DB]2 [DG] | [=DG]2 [DF] E3 | %8
w: o- pen my heart, and|let me pre- pare|love with your chil- dren|thus to share.|
w: place in my hands the|won- der- ful key|that shall un- lock and|set me free.|
w: and while the mes- sage|sounds in my ear,|ev- ery- thing false will|dis- ap- pear.|
 [CA][CG][CF] [CE]2 [CF] | [DF]2 E E3 | [DB][DG][DF] E2 [DG] | [CF]2 [CE] [CE]3 | %12
w: ||||
w: Si- lent- ly now, on|ben- ded knee,|re- ady I wait your|will to see;|
w: ||||
 [Ec][EB][EA] A2 A | [FB]2 [FA] [DF]3 | E3 [DB]2 [DA] | [CA]6 |] %16
w: o- pen my heart, il-|lu- mine me,|Spir- it di-|vine!|
w: o- pen my eyes, il-|lu- mine me,|Spi- rit di-|vine!|
w: o- pen my ears, il-|lu- mine me,|Spi- rit di-|vine!|
V:2
 x6 | x x D D3 | x3 D2 x | x6 | CCC x3 | x6 | x6 | x3 E3 | x6 | x x D D3 | x3 D2 x | x6 | %12
 x3 _G2 G | x6 | D3 x3 | x6 |] %16
V:3
 [A,,E,][A,,E,][A,,E,] [A,,A,]2 [A,,A,] | [B,,G,]2 [B,,G,] [B,,G,]3 | %2
 [E,G,][E,B,][E,A,] [E,G,]2 [E,B,] | A,2 A, A,3 | [G,B,][G,B,][G,B,] [F,A,]2 [F,A,] | %5
 [=E,B,][F,A,][C,B,] [F,C]3 | [B,,A,][B,,G,][B,,F,] [B,,F,]2 [B,,B,] | [B,,B,]2 [B,,A,] [E,G,]3 | %8
 [A,,E,][A,,E,][A,,E,] [A,,A,]2 [A,,A,] | [B,,G,]2 [B,,G,] [B,,G,]3 | %10
 [E,G,][E,B,][E,A,] [E,G,]2 [E,B,] | A,2 A, A,3 | [A,,A,][B,,G,][C,A,] [C,A,]2 [C,A,] | %13
 [D,A,]2 [D,A,] [D,A,]3 | [E,G,]3 [E,G,]2 E, | [A,,E,]6 |] %16
V:4
 x6 | x6 | x6 | A,2 A, A,3 | x6 | x6 | x6 | x6 | x6 | x6 | x6 | A,2 A, A,3 | x6 | x6 | x3 x x E, | %15
 x6 |] %16

